X:849
T:S. Ann An Ile 
C:Joe Buchanan's Scottish Tome - Page 414.1
I:414 1
C:Highland Schottische
R:Strathspey
Z:Carl Allison
L:1/8
M:4/4
K:G
"G"G>G B>d "Am"c>A B>G | "A7"E>E A>G "D7"F<D D2 |
"G"G>G B>d "Am"c>A B>G | "C"E>A "D7"F<D "G"G2 G2 :|
"G"D>D D>B, "G"D>D D>B | "G"d>B "G/B"A>B "C"G<E E2 |
"G"D>D D>B, "G"D>D D>B | "G"d>B "D7"A<B "G"G2 G2 :|

